!! "Inner House", (popular song) No. 18 from Jonathan Condit,
!! 'Music of the Korean Renaissance; Songs and dances of the fifteenth century',
!! London: Cambridge University Press, 1984, ISBN 0 521 24399 8; pp.84-86
!! pluck voice
!!  str.
**kern	**kern
*M6/8	*M6/8
=1	=1
4r	4r
8F	8f
4B-	4b-
8A-	8a-
=2	=2
4.F	[2.f
4F	.
8F	.
=3	=3
4F	4f]
8A-	8a-
4B-	{4b-
8A-	8a-}
=4	=4
4.F	{4.f
4E-	[4.e-
8E-	.
=5	=5
4E-	4e-]
8B-	8b-
4B-	{4b-
8A-	8a-}
=6	=6
8B-	{8b-
4d-	4dd-}
4B-	[4.b-
8B-	.
=7	=7
4B-	4b-]
8A-	8a-
4B-	{4b-
8d-	8dd-}
=8	=8
4B-	{4b-
8A-	8a-
4F	[4.f
8F	.
=9	=9
4F	4f]
8d-	8dd-
4B-	{4b-
8A-	8a-}
=10	=10
8B-	8b-
8d-	{8dd-
8B-	8b-
4A-	4a-
8F	8f}
=11	=11
4.E-	[2.e-
4E-	.
8E-	.
=12	=12
4E-	4e-]
8F	8f
4F	4f
8D-	8d-
=13	=13
4.E-	[2.e-
4E-	.
8E-	.
=14	=14
4E-	4e-]
8D-	8d-
8E-	{8e-
8F	8f}
{24E-	{24e-
12D-}	12e-}
=15	=15
4BB-	4B-
8B-	8r
4E-	4.r
8B-	.
=16	=16
4.B-	2.r
4B-	.
8B-	.
=17	=17
4B-	4r
8D-	8d-
4.E-	4.e-
=18	=18
4.D-	4.d-
4E-	[4.e-
8E-	.
=19	=19
4E-	4e-]
8F	8f
4.F	4.f
=20	=20
4.E-	4.e-
4D-	[4.d-
8D-	.
=21	=21
4D-	4d-]
8E-	8e-
4D-	4d-
8BB-	8B-
=22	=22
4.BB-	[2.B-
4BB-	.
8BB-	.
=23	=23
4BB-	4B-]
8B-	8b-
4.d-	4.dd-
=24	=24
8B-	{8b-
4d-	4dd-}
4B-	[4.b-
8B-	.
=25	=25
4B-	4b-]
8A-	8a-
4B-	{4b-
8d-	8dd-}
=26	=26
4B-	{4b-
8A-	8a-
4F	[4.f
8F	.
=27	=27
4F	4f]
8d-	8dd-
4B-	{4b-
8A-	8a-}
=28	=28
8B-	{8b-
8d-	8dd-
8B-	8b-
4A-	4a-
8F	8f}
=29	=29
4.E-	[2.e-
4E-	.
8E-	.
=30	=30
4E-	4e-]
8F	[8f
4F	4f]
8D-	8d-
=31	=31
4.E-	[2.e-
4E-	.
8E-	.
=32	=32
4E-	4e-]
8D-	{8d-
8F	8f}
{24E-	{24e-
12D-}	12d-}
=33	=33
4BB-	4B-
8B-	8r
4E-	4.r
8B-	.
=34	=34
4.B-	2.r
4B-	.
8B-	.
=35	=35
4B-	4r
8D-	8d-
4.E-	4.e-
=36	=36
4.D-	4.d-
4E-	4e-
8E-	[8e-
=37	=37
4E-	4e-]
8F	8f
4.F	4.f
=38	=38
4.E-	4.e-
4D-	[4.d-
8D-	.
=39	=39
4D-	4d-]
8E-	8e-
4D-	{4d-
8BB-	8B-}
=40	=40
4.BB-	[2.B-
4BB-	.
8BB-	.
=41	=41
4BB-	4B-]
8B-	8b-
4.d-	4.dd-
=42	=42
8B-	{8b-
4d-	4dd-}
4B-	[4.b-
8B-	.
=43	=43
4B-	4b-]
8A-	8a-
4B-	{4b-
8d-	8dd-}
=44	=44
4B-	{4b-
8A-	8a-
4F	[4.f
8F	.
=45	=45
4F	4f}]
8d-	8dd-
4B-	8b-
.	8b-
8A-	8a-
=46	=46
8B-	{8b-
8d-	8dd-}
8B-	8b-
4A-	4a-
8F	8f
=47	=47
4.E-	[2.e-
4E-	.
8E-	.
=48	=48
4E-	4e-]
8F	[8f
4F	4f]
8D-	8d-
=49	=49
4.E-	[2.e-
4E-	.
8E-	.
=50	=50
4E-	4e-]
8D-	{8d-
8E-	8e-
8F	8f}
{24E-	{24e-
12D-}	12d-}
=51	=51
4BB-	4B-
8B-	8r
4E-	4.r
8B-	.
=52	=52
4.B-	2.r
4B-	.
8B-	.
=53	=53
4B-	4r
====	====
*-	*-
